X: 181
M: 3/4
L: 1/8
K: D
[V:1] (DE) | F2 A2 (Bc) | d2 e2 ({de}f2) |
[V:2]  D2  | D2 F2  G2  | F2 E2      D2  |
[V:1] A2 (BA) (GF) | {F}E4 DE | F2 A2 (Bc) |
[V:2] F2 (GF)  ED |     A4 FE | D2 F2  G2  |
[V:1] (dc) (de) {de}f2 |[1 (AB) (AF) (ED) | D4 :|
[V:2]  F2   E2      D2 |1 (FG)   A2   G2  | F4 :|
[V:1] [2  A2 (gf) ed | d4 |: (de) | f2 (gf) (ed) |
[V:2] [2 (FG) A2  G2 | F4 |:  A2  | d2 (ed) (cB) |
[V:1] c2 (ec) (BA) | (B>cd) B (AG) | ({F}E4) (DE) |
[V:2] A2  A2   F2 |   G2   G2 (FD) |     A4  (FE) |
[V:1] F2 A2 (Bc) | (dc) (de) f2 |
[V:2] D2 F2  G2  |  F2   E2  D2 |
[V:1] [1  A2 (gf) (ed) | d4 :|[2 (AB) (AF) (ED) | D4 |]
[V:2] [1 (FG) A2   G2  | F4 :|[2 (FG)  A2   G2  | F4 |]
K:

